optimized/24/outline/registery-fee.svg

<svg viewBox="0 0 24 24" fill="none" xmlns="http://www.w3.org/2000/svg">
  <g clip-path="url(#clip0_2627_42208)">
    <path d="M8.55 6.4C8.88137 6.15147 9.35147 6.21863 9.6 6.55L12 9.75L14.4 6.55C14.6485 6.21863 15.1186 6.15147 15.45 6.4C15.7814 6.64853 15.8485 7.11863 15.6 7.45L13.5 10.25H15.5C15.9142 10.25 16.25 10.5858 16.25 11C16.25 11.4142 15.9142 11.75 15.5 11.75H12.75V12.75H14.5C14.9142 12.75 15.25 13.0858 15.25 13.5C15.25 13.9142 14.9142 14.25 14.5 14.25H12.75V17C12.75 17.4142 12.4142 17.75 12 17.75C11.5858 17.75 11.25 17.4142 11.25 17V14.25H9.5C9.08579 14.25 8.75 13.9142 8.75 13.5C8.75 13.0858 9.08579 12.75 9.5 12.75H11.25V11.75H8.5C8.08579 11.75 7.75 11.4142 7.75 11C7.75 10.5858 8.08579 10.25 8.5 10.25H10.5L8.4 7.45C8.15147 7.11863 8.21863 6.64853 8.55 6.4Z" fill="#333333"/>
    <path fill-rule="evenodd" clip-rule="evenodd" d="M22 12C22 17.5228 17.5228 22 12 22C6.47715 22 2 17.5228 2 12C2 6.47715 6.47715 2 12 2C17.5228 2 22 6.47715 22 12ZM20.5 12C20.5 16.6944 16.6944 20.5 12 20.5C7.30558 20.5 3.5 16.6944 3.5 12C3.5 7.30558 7.30558 3.5 12 3.5C16.6944 3.5 20.5 7.30558 20.5 12Z" fill="#333333"/>
  </g>
  <defs>
    <clipPath id="clip0_2627_42208">
      <rect width="24" height="24" fill="white"/>
    </clipPath>
  </defs>
</svg>

<svg xmlns="http://www.w3.org/2000/svg" width="24" height="24" fill="none">
  <g fill="#333" clip-path="url(#a)">
    <path d="M8.55 6.4a.75.75 0 0 1 1.05.15l2.4 3.2 2.4-3.2a.75.75 0 1 1 1.2.9l-2.1 2.8h2a.75.75 0 0 1 0 1.5h-2.75v1h1.75a.75.75 0 0 1 0 1.5h-1.75V17a.75.75 0 0 1-1.5 0v-2.75H9.5a.75.75 0 0 1 0-1.5h1.75v-1H8.5a.75.75 0 0 1 0-1.5h2l-2.1-2.8a.75.75 0 0 1 .15-1.05Z"/>
    <path fill-rule="evenodd" d="M22 12c0 5.523-4.477 10-10 10S2 17.523 2 12 6.477 2 12 2s10 4.477 10 10Zm-1.5 0a8.5 8.5 0 1 1-17 0 8.5 8.5 0 0 1 17 0Z" clip-rule="evenodd"/>
  </g>
  <defs>
    <clipPath id="a">
      <path fill="#fff" d="M0 0h24v24H0z"/>
    </clipPath>
  </defs>
</svg>
